icons/north-star-16.svg

<svg xmlns="http://www.w3.org/2000/svg" width="16" height="16" viewBox="0 0 16 16"><path d="M8.5.75a.75.75 0 00-1.5 0v5.19L4.391 3.33a.75.75 0 10-1.06 1.061L5.939 7H.75a.75.75 0 000 1.5h5.19l-2.61 2.609a.75.75 0 101.061 1.06L7 9.561v5.189a.75.75 0 001.5 0V9.56l2.609 2.61a.75.75 0 101.06-1.061L9.561 8.5h5.189a.75.75 0 000-1.5H9.56l2.61-2.609a.75.75 0 00-1.061-1.06L8.5 5.939V.75z"/></svg>

<svg xmlns="http://www.w3.org/2000/svg" width="16" height="16" viewBox="0 0 16 16">
  <defs/>
  <path d="M8.5,0.75 A0.75 0.75 0 0 0 7,0.75 L7,5.94 L4.391,3.33 A0.75 0.75 0 1 0 3.331,4.391 L5.939,7 L0.75,7 A0.75 0.75 0 0 0 0.75,8.5 L5.94,8.5 L3.33,11.109 A0.75 0.75 0 1 0 4.391,12.169 L7,9.561 L7,14.75 A0.75 0.75 0 0 0 8.5,14.75 L8.5,9.56 L11.109,12.17 A0.75 0.75 0 1 0 12.169,11.109 L9.561,8.5 L14.75,8.5 A0.75 0.75 0 0 0 14.75,7 L9.56,7 L12.17,4.391 A0.75 0.75 0 0 0 11.109,3.331 L8.5,5.939 L8.5,0.75 Z"/>
</svg>
